!!!SOCIAL_FUNCTION:	dream songs
!!!PDT:	1913
!!!OTL: No_143_Dream_Song.krn
!!!REG: Great_Lakes
!!!LANG: Non-Tone
!!!LING_GROUP: Algonquin
**kern	**kern
*staff2	*staff1
*clefF4	*clefF4
*k[f#]	*k[f#]
*M4/4	*M4/4
8GG/L	4d\
8GG/J	.
8GG/L	4d\
8GG/J	.
=1	=1
8GG/L	2d\
8GG/	.
8GG/	.
8GG/J	.
8GG/L	4d\
8GG/	.
8GG/	4d\
8GG/J	.
=2	=2
1r	2d\
.	2d\
=3	=3
1r	4d\
.	4d\
.	4d\
.	4d\
=4||	=4||
*M3/4	*M3/4
2.r	4B\
.	4d\
.	4d\
=5||	=5||
*M4/4	*M4/4
1r	2d\
.	4B\
.	4B\
=6	=6
1r	2G\
.	2G\
=7	=7
1r	4G\
.	4G\
.	4G\
.	4G\
=8	=8
1r	2G;\
.	4d\
.	4B\
=9	=9
1r	2d\
.	4B\
.	4B\
=10	=10
1r	2G\
.	2G\
=11	=11
1r	4G\
.	4G\
.	4G\
.	4G\
=12||	=12||
*M3/4	*M3/4
2.r	4E\
.	4G\
.	4G\
=13||	=13||
*M4/4	*M4/4
1r	2G\
.	4D\
.	4D\
=14	=14
1r	2D\
.	2D\
=15	=15
1r	4D\
.	4D\
.	4D\
.	4D\
=16||	=16||
*M3/4	*M3/4
2.r	4D\
.	4G\
.	4G\
=17||	=17||
*M4/4	*M4/4
1r	2G\
.	4D\
.	4D\
=18	=18
1r	2D\
.	2D\
=19	=19
1r	4D\
.	4D\
.	4D\
.	4D\
=20||	=20||
*M3/4	*M3/4
2.r	4BB/
.	4D\
.	4D\
=21||	=21||
*M4/4	*M4/4
1r	2D\
.	4BB/
.	4BB/
=22	=22
1r	2GG/
.	2GG/
=23	=23
1r	2GG/
.	2r
==	==
*-	*-
